X:1
T:Title
%%score { ( 1 3 ) | ( 2 4 ) }
L:1/8
M:4/4
K:Ab
V:1 treble nm="Grand Piano"
V:3 treble 
V:2 bass 
V:4 bass 
V:1
 z4 z2[Q:1/4=100] [A,C]>[B,D] | [CE]2 [Ec]2 [Ec]2 [EA]2 | B>A A>A E2 [A,CE]>[CEA] | G2 F2 E2 B2 | %4
[M:3/4] [CA]6 |[M:1/4] [A,C]>[B,D] |[M:4/4] [CE]2 [Ec]2 [Ec]2 [EA]2 | %7
 [DB]>[FA] [FA]>A E2 [CE]>[CA] | [=DF]2 [DB]2 [DB]2 [Dc]2 |[M:3/4] B6 |[M:1/4] E>E |[M:4/4] d6 z2 | %12
 c6 z2 | [=Ec]2 [EG]2 [Ec]2 [EB]>[EB] | [FA]6 z2 | [FA]>[=EG] [FA]>[GB] [FA]>[EG] [FA]>[A,DF] | %16
 [CE-]4 E2 z2[K:treble] | [Gd]>[Gd] [Gd]>[Ge] [Gd]>c B>A | G6[K:bass] z2 | c6 z2 | %20
 e6 z2[Q:1/4=98][Q:1/4=96][Q:1/4=94][Q:1/4=92][Q:1/4=90][Q:1/4=88][Q:1/4=85][Q:1/4=83][Q:1/4=81][Q:1/4=79][Q:1/4=77] | %21
 [Ee]2 c2 A2 B>B |[M:3/4] [CA]6 |] %23
V:2
 z4 z2 [A,,E,]>[A,,E,] | [A,,A,]2 [A,,A,]2 [A,,A,]2 [C,A,]2 | %2
 [D,F,D]>[D,F,D] [D,F,D]>[F,A,D] [A,C]2 A,,>A,, | [E,B,D]2 [E,A,D]2 [E,G,D]2 [E,G,D]2 | %4
[M:3/4] [A,,A,]6 |[M:1/4] [A,,E,]>[A,,E,] |[M:4/4] [A,,A,]2 [A,,A,]2 [A,,A,]2 [C,A,]2 | %7
 [D,F,]>[D,D] [D,D]>[F,A,D] [A,C]2 [A,,A,]>[A,,A,] | [B,,A,]2 [B,,F,]2 [B,,F,]2 [B,,A,]2 | %9
[M:3/4] [E,G,D]6 |[M:1/4][K:treble] D>D |[M:4/4] G2[K:bass] [E,B,]>[E,B,] [E,B,]2 D>D | %12
 C2 [A,,A,]>[A,,A,] [A,,A,]2 [A,,A,]>[A,,A,] | [C,G,]2 [C,C]2 [C,G,]2 [C,C]>[C,C] | %14
 [F,C]2 F,>F, F,2 [F,CF]>[E,C] | [D,D]>[D,D] [D,D]>[D,D] [D,D]>[D,D] [D,D]>D, | %16
 A,,2 A,,>A,, [B,,G,]2 [E,G,D]>[E,G,D] | %17
 [E,B,]>[E,B,] [E,B,]>[E,B,] [E,B,]>[E,A,E] [E,G,E]>[E,CE] | E6 z2 | %19
 C2 [A,,A,]>[A,,A,] [A,,A,]2[K:treble] E>E | A2 [A,C]>[A,C][K:bass] [A,C]2 [A,,A,]>[A,,A,] | %21
 [C,A,]2 [E,A,E]2 [F,A,C]2 [E,G,D]>[E,G,D] |[M:3/4] [A,,A,]6 |] %23
V:3
 x8 | x8 | x8 | x8 |[M:3/4] x6 |[M:1/4] x2 |[M:4/4] x8 | x8 | x8 |[M:3/4] x6 |[M:1/4] x2 | %11
[M:4/4] z2 G>G G2 E>E | z2 E>F E2 [Ec]>[Ec] | x8 | z2 C>C C2 A>[_GA] | x8 | %16
 A,2 _G,>G, D2 E>[K:treble]E | x8 | z2[K:bass] B,>B, B,2 E>E | z2 E>F E2 A>c | %20
 z2 A>A A2 [CA]>[Ec] | x8 |[M:3/4] x6 |] %23
V:4
 x8 | x8 | x8 | x8 |[M:3/4] x6 |[M:1/4] x2 |[M:4/4] x8 | x8 | x8 |[M:3/4] x6 | %10
[M:1/4][K:treble] x2 |[M:4/4] x2[K:bass] x6 | x8 | x8 | x8 | x8 | x8 | x8 | [E,B,]2 E,>E, E,2 D>D | %19
 x6[K:treble] x2 | x4[K:bass] x4 | x8 |[M:3/4] x6 |] %23

